X:1
T:Title
%%score { ( 1 3 ) | ( 2 4 ) }
L:1/8
Q:1/4=100
M:4/4
K:Ab
V:1 treble nm="Grand Piano"
V:3 treble 
V:2 bass 
V:4 bass 
V:1
 [Ec][CG][DB][CA] [CE]2 [A,C][B,D] | [CE]2 [CA]2 [DG]4 | [Gd][Gd][DF][DG] [CA]2 [Ec]2 | %3
w: James~M.~Black * * * * * *|||
 [FB][FA]FA E4 | [CE][CE][CA][DB] [Ec]2 [EA]2 | B2 d2 z2 D2 | [CA][CA] [EA]B/B/ c e2 [Fd] | %7
w: ||||
 [Ec]2 [DB]2 [CA]4 |] %8
w: |
V:2
 [A,,A,][A,,A,][A,,F,][A,,E,] [A,,A,]2 [A,,E,][A,,E,] | [A,,A,]2 [A,,A,]2 [E,B,]4 | %2
 [E,B,][E,B,][E,B,][E,B,] [A,,A,]2 [A,,A,]2 | [D,A,][D,A,][D,A,D][F,A,D] [A,C]4 | %4
 [A,,A,][A,,A,][A,,E,][A,,E,] [A,,A,]2 [C,A,]2 | z4 E2 z2 | %6
 [A,,A,][A,,A,] [C,A,][E,G,E]/[E,G,E]/[K:treble] [A,E] [A,CA]2[K:bass] [D,A,] | %7
 [E,A,]2 [E,G,]2 [A,,A,]4 |] %8
V:3
 x8 | x8 | x8 | x8 | x8 | z4 G4 | x8 | x8 |] %8
V:4
 x8 | x8 | x8 | x8 | x8 | [E,G,E]2 [E,G,E]2 [E,B,]4 | x4[K:treble] x3[K:bass] x | x8 |] %8

